X: 3010
T: POLICEMAN'S CAP
Q:"Reel."
R: Reel.
%R:reel
B: James Kerr "Merry Melodies" v.3 p.4 #10
Z: 2016 John Chambers <jc:trillian.mit.edu>
M: C
L: 1/8
K: D
uf |:\
d3A BAFA | BAFA (BA)F2 |\
[1 ABde fded | (Be)e2 (Be)e2 |\
[2 ABde fgec | dBAF D2 |]
|: (ufg) |\
a3f bgfe | d3A (BA)F2 |\
[1 ABde fded | (Be)e2 (Be)e2 :|\
[2 ABde fgec | dBAF D3 |]

%%sep 1 1 500
%%sep 1 1 500

